X:1
T:G Major Alexander Johnson, 1818
T:Robert Robinson, 1759 Stanza 3 by Martin Madan, 1760 87. 87. 87. 87.
T:Olney
T:Transcribed from Moore's Columbian Harmony , 1825; Counter by William Boyd, 1818.
%%score [ 1 2 3 4 ]
L:1/8
Q:1/4=120
M:2/4
K:G
V:1 treble nm="Tr." snm="Tr."
V:2 treble nm="C." snm="C."
V:3 treble-8 nm="T." snm="T."
V:4 bass nm="B." snm="B."
V:1
"^Come, thou fount of every blessing,     Tune my heart to sing thy grace;\nStreams  of  mercy,  never   cea–sing,    Call  for  songs  of  loudest  praise.""^1. {" B2 G2 | %1
 B2 d2 | d2 A2 | BA G2 | G3 A | B2 c2 | d2 ed |"^}" d4 :| %8
"^Teach me some me–lo–dious  sonnet,  Sung    by    fla–ming" g3 f | g2 d2 | c3 d | e2 d2 | GA Bc | %13
 d2 g2 | %14
"^1. tongues  above.  Praise the mount, I’m  fixed  up   –    on        it,     Mount  of   thy   re  –  dee  –  ming   love!" A2 GA | %15
 B4 | B2 G2 | B2 d2 | d2 A2 | BA G2 | G3 A | B2 c2 | d2 ed | d4 |] %24
V:2
"^Here  I’ll  raise  my  E – be – ne – zer;   Hither   by   thy  help  I’m  come.\nAnd   I   hope,  by thy  good  pleasure,   Safely   to    ar  – rive   at    home.""^2. {" D2 D2 | %1
 G2 G2 | F2 A2 | D2 D2 | D3 B, | E2 D2 | D2 B,2 |"^}" D4 :| %8
"^Je  – sus  sought  me  when  a  stranger   Wandering  from  the" D3 D | G2 G2 | G3 A | B2 B2 | %12
 G2 G2 | G2 G2 | %14
"^2. fold   of     God;        He,   to      res – cue    me    from    dan  –  ger,      In   –  ter – posed  his   pre – cious   blood." F2 A2 | %15
 G4 | D2 D2 | G2 G2 | F2 A2 | D2 D2 | D3 B, | E2 D2 | D2 B,2 | D4 |] %24
V:3
"^O!   to   grace,  how  great  a  debtor      Dai – ly   I'm  constrained  to  be!\nLet that grace,  now  like   a   fetter,   Bind  my wandering  heart  to thee.""^3. {" G2 G2 | %1
 E2 G2 | D2 DE | GA B2 | d3 e | B2 G2 | A2 EF |"^}" G4 :| %8
"^Prone  to  wander,  Lord,   I     feel   it,  Prone  to    leave  the" d3 c | Bc d2 | g3 d | %11
 e2 d2 | g2 d2 | B2 G2 | %14
"^3. God   I          love!     Here's  mine  heart, O  take   and     seal     it,       Seal        it       for     thy  courts   a  –  bove!" A2 EF | %15
 G4 | G2 G2 | E2 G2 | D2 DE | GA B2 | d3 e | B2 G2 | A2 EF | G4 |] %24
V:4
 G,2 G,2 | B,2 G,2 | A,2 D,2 | G,F, E,2 | D,3 E, | E,3 F, | D2 B,A, | G,4 :| G,3 G, | G,2 G,2 | %10
 G,3 D, | E,2 G,2 | G,2 G,2 | G,2 B,2 | D2 B,A, | G,4 | G,2 G,2 | B,2 G,2 | A,2 D,2 | G,F, E,2 | %20
 D,3 E, | E,2 G,2 | D2 B,A, | G,4 |] %24

